**kern	**kern
*staff2	*staff1
*clefF4	*clefG2
*k[b-]	*k[b-]
*M2/4	*M2/4
*F:	*F:
(4A 4c	2ff
8B-L 8d	.
8AJ) 8c	.
=183	=183
4G 4B- 4e	2ccc
8.AL 8.c 8.f	.
16AJk 16f	.
=184	=184
16.ALL 16.f	[8cccL
32AJJk 32c	.
4F 4A	128cccLLLL]
.	128bb-
.	128aa
.	128gg
.	128ff
.	128ee
.	128dd
.	128cc
.	128b-
.	128a
.	128g
.	128f
.	128e
.	128d
.	128c
.	128B
.	96dLLLL
.	96c
.	96BJJJ
.	96cLLL
.	96d
.	96eJJJ
.	96fLLL
.	96g
.	96aJJJ
.	96b-LLL
.	96cc
.	96ddJJJ
16.GLL 16.B-	96eeLLL
.	96ff
.	96ggJJJ
.	96aaLLL
.	96bb-
.	96bbJJJ
.	96cccLLL
.	96ccc#
.	96dddJJJ
32BB-JJk 32G	64ddd#LLL
.	64eeeJJJJ
=185	=185
16AA 16F	96fffLLLL
.	96ccc
.	96aaJJJ
.	96ffLLL
.	96cc
.	96aJJJ
16r	96ffLLL
.	96cc
.	96aJJJ
.	96fLLL
.	96c
.	96AJJJ
16FFF 16FF	96fLLL
.	96c
.	96AJJJ
*	*clefF4
.	96FLLL
.	96C
.	96AAJJJ
16r	96FLLL
.	96C
.	96AAJJJ
.	96FFLLL
.	96CC
.	96AAAJJJJ
4r	96FFFLLLL
.	96FF
.	96GGJJJ
.	96AALLL
.	96BB-
.	96CJJJ
.	96DLLL
.	96E
.	96FJJJ
.	96GLLL
.	96A
.	96B-JJJ
*	*clefG2
.	96cLLL
.	96d
.	96eJJJ
.	96fLLL
.	96g
.	96aJJJ
.	32b-LL
.	32ccJJJ
=186	=186
*	*^
96r	[4b- [4dd	16r
96FFFLLLL	.	.
96BBB-JJJ	.	.
96DDLLL	.	.
96BBB-	.	.
96DDJJJ	.	.
96FFLLL	.	16fLL
96DD	.	.
96FFJJJ	.	.
96BB-LLL	.	.
96FF	.	.
96BB-JJJ	.	.
96DLLL	.	16f
96BB-	.	.
96DJJJ	.	.
96FLLL	.	.
96D	.	.
96FJJJ	.	.
96B-LLL	.	16fJJ
96F	.	.
96B-JJJ	.	.
96dLLL	.	.
96B-	.	.
96dJJJJ	.	.
16f	16b-LL] 16dd]	16r
16r	(16cc# 16ee	16fLL
8r	16dd 16ff	16f
.	16b-JJ) 16dd	16fJJ
*	*v	*v
=187	=187
96r	16.fLL 16.a 16.cc
96FFLLLL	.
96AAJJJ	.
96CLLL	.
96AA	.
96CJJJ	.
16FJJ	.
.	32fk 32a 32cc
96r	16.e 16.b- 16.cc 16.ee
96GGGLLLL	.
96BBB-JJJ	.
96EELLL	.
96BBB-	.
96EEJJJ	.
16GGJJ	.
.	32eJJk 32b- 32cc 32ee
96r	16.fLL 16.cc 16.ff
96AALLLL	.
96CJJJ	.
96FLLL	.
96C	.
96FJJJ	.
16AJJ	.
.	32fk 32cc 32ff
96r	16.d 16.a 16.cc 16.dd
96FFFLLLL	.
96AAAJJJ	.
96DDLLL	.
96AAA	.
96DDJJJ	.
16FFJJ	.
.	32dJJk 32a 32cc 32dd
=188	=188
96r	16.gLL 16.cc 16.gg
96EELLLL	.
96GGJJJ	.
96CLLL	.
96GG	.
96CJJJ	.
16EJJ	.
.	32ck 32cc
96r	16.c 16.e- 16.f# 16.cc
96AAA-LLLL	.
96CCJJJ	.
96EE-LLL	.
96CC	.
96EE-JJJ	.
16AA-JJ	.
.	32cJJk 32e- 32f# 32cc
96r	16.cLL 16.e 16.g 16.cc
96GGLLLL	.
96CJJJ	.
96ELLL	.
96C	.
96EJJJ	.
16GJJ	.
.	32ck 32e 32g 32cc
96r	16.B 16.d 16.f 16.g 16.b
96GGGLLLL	.
96BBBJJJ	.
96DDLLL	.
96BBB	.
96DDJJJ	.
16GGJJ	.
.	32BJJk 32d 32f 32g 32b
=189	=189
96r	16c 16e 16g 16cc
96CCLLLL	.
96EEJJJ	.
96GGLLL	.
96EE	.
96GGJJJ	.
96CLLL	16r
96GG	.
96CJJJ	.
96ELLL	.
96C	.
96EJJJ	.
96GLLL	8r
96E	.
96GJJJ	.
96cLLL	.
96G	.
96cJJJ	.
96eLLL	.
96c	.
96eJJJ	.
96gLLL	.
96e	.
96gJJJJ	.
*clefG2	*
16cc	16r
16r	16eeLL 16gg 16eee
*clefF4	*
[8G	(16ee 16gg 16eee
.	16ddJJ 16ff 16ddd
=190	=190
96GLLLL]	16cc) 16ee 16ccc
96CC	.
96EEJJJ	.
96GGLLL	.
96EE	.
96GGJJJ	.
96CLLL	16r
96GG	.
96CJJJ	.
96ELLL	.
96C	.
96EJJJ	.
96GLLL	8r
96E	.
96GJJJ	.
96cLLL	.
96G	.
96cJJJ	.
96eLLL	.
96c	.
96eJJJ	.
96gLLL	.
96e	.
96gJJJJ	.
*clefG2	*
16cc	16r
16r	16eLL 16g 16ee
*clefF4	*
[8G	(16e 16g 16ee
.	16dJJ 16f 16dd
=191	=191
96GLLLL]	16c) 16e 16cc
96CC	.
96EEJJJ	.
96GGLLL	.
96EE	.
96GGJJJ	.
96CLLL	16r
96GG	.
96CJJJ	.
96ELLL	.
96C	.
96EJJJ	.
96GLLL	8r
96E	.
96GJJJ	.
96cLLL	.
96B	.
96cJJJ	.
96BLLL	.
96c	.
96BJJJ	.
96cLLL	.
96B	.
96cJJJJ	.
96B-LLLL	4r
96c	.
96B-JJJ	.
96cLLL	.
96B-	.
96cJJJ	.
96B-LLL	.
96c	.
96B-JJJ	.
96cLLL	.
96B-	.
96cJJJ	.
96B-LLL	.
96c	.
96B-JJJ	.
96cLLL	.
96B-	.
96cJJJ	.
96B-LLL	.
96c	.
96B-JJJ	.
96cLLL	.
96B-	.
96cJJJJ	.
=192	=192
*-	*-
